storage/app/icons/phosphoricons/bold/film-strip-bold.svg

<svg xmlns="http://www.w3.org/2000/svg" fill="currentColor" viewBox="0 0 256 256"><path d="M216 36H40a20 20 0 0 0-20 20v144a20 20 0 0 0 20 20h176a20 20 0 0 0 20-20V56a20 20 0 0 0-20-20M44 100h72v56H44Zm96-24V60h24v16Zm-24 0H92V60h24Zm0 104v16H92v-16Zm24 0h24v16h-24Zm0-24v-56h72v56Zm72-80h-24V60h24ZM68 60v16H44V60ZM44 180h24v16H44Zm144 16v-16h24v16Z"/></svg>

<svg xmlns="http://www.w3.org/2000/svg" viewBox="0 0 256 256" fill="currentColor"><path d="M216,36H40A20,20,0,0,0,20,56V200a20,20,0,0,0,20,20H216a20,20,0,0,0,20-20V56A20,20,0,0,0,216,36ZM44,100h72v56H44Zm96-24V60h24V76Zm-24,0H92V60h24Zm0,104v16H92V180Zm24,0h24v16H140Zm0-24V100h72v56Zm72-80H188V60h24ZM68,60V76H44V60ZM44,180H68v16H44Zm144,16V180h24v16Z"/></svg>
